X: 20043
T: The GNOME WALTZ
C: Copyright.__T.H.
%R: waltz
B: W. Hamilton "Universal Tune-Book" Vol. 2 Glasgow 1846 p.4 #3
S: http://s3-eu-west-1.amazonaws.com/itma.dl.printmaterial/book_pdfs/hamiltonvol2web.pdf
Z: 2016 John Chambers <jc:trillian.mit.edu>
M: 3/4
L: 1/8
K: Bb
%%stretchstaff 0
% - - - - - - - - - - - - - - - - - - - - - - - - -
|:\
B2 d2 f2 | =efgf bz | F2 A2 c2 | _edgf dz |\
B2 d2 f2 | (ba)(gf).e.d | c=Bcdgf | "^Fin."_B6 H:|\
F2 B2 c2 | d6 | g2 f2 =e2 | f2 d2 B2 |
F2 A2 c2 | _e6 | e2 d2 c2 | ^c2 d2 B2 |\
F2 B2 d2 | f6 | b2 a2 g2 | f2 e2 d2 |\
d2 (cd).e.f | g2 e2 c2 | B2 (AB).d.c | "^D.C."B6 |]
% - - - - - - - - - - - - - - - - - - - - - - - - -

%%sep 1 1 500
%%sep 1 1 500

